webapp/src/assets/icons/cloudproviders/aws/architecture_services/certificate_manager.svg

<?xml version="1.0" encoding="UTF-8"?>
<svg width="40px" height="40px" viewBox="0 0 40 40" version="1.1" xmlns="http://www.w3.org/2000/svg" xmlns:xlink="http://www.w3.org/1999/xlink">
    <title>Icon-Architecture/32/Arch_AWS-Certificate-Manager_32</title>
    <g id="Icon-Architecture/32/Arch_AWS-Certificate-Manager_32" stroke="none" stroke-width="1" fill="none" fill-rule="evenodd">
        <path d="M17.8323574,19.6308709 C17.9645126,19.7501051 18.0221441,19.9309436 17.9843855,20.1058203 L17.4706696,22.4676501 L19.7401611,21.076585 C19.8991448,20.9782168 20.0998616,20.9782168 20.2608325,21.076585 L22.513432,22.4646692 L22.0146208,20.0978714 C21.9788495,19.9259755 22.0354874,19.7481179 22.1646616,19.6288837 L24.1787856,17.7877097 L21.5138223,17.2730156 C21.3608006,17.2432071 21.2306327,17.1438453 21.162071,17.0027516 L19.9955286,14.6160813 L18.8021576,17.0097069 C18.7326023,17.1478198 18.6034281,17.2461879 18.4523936,17.2750029 L15.7953795,17.7926778 L17.8323574,19.6308709 Z M16.2524575,23.3946956 L16.9529792,20.1753736 L14.3913553,17.8632247 C14.2512509,17.7370352 14.1956067,17.5432797 14.2462827,17.3614476 C14.2959651,17.1806092 14.4450122,17.0434899 14.6288371,17.006726 L18.0211505,16.3469637 L19.5553426,13.2717163 C19.6398027,13.1028012 19.8405195,12.965682 20.0024841,12.9964841 C20.1912772,12.9974777 20.3641719,13.1057821 20.4466447,13.2756908 L21.9460591,16.3439829 L25.3373789,16.9997707 C25.5212037,17.0345473 25.6702509,17.170673 25.7209269,17.3525051 C25.771603,17.5323499 25.7169523,17.7261054 25.5788353,17.8532885 L23.0450335,20.1704055 L23.7246886,23.3927084 C23.7654282,23.5864639 23.68693,23.7871747 23.5249654,23.9014407 C23.3600199,24.0167004 23.1473793,24.0216685 22.9774655,23.9183323 L19.9995032,22.08312 L16.9976933,23.9233003 C16.9172078,23.9729812 16.8277796,23.9968281 16.7373576,23.9968281 C16.6369992,23.9968281 16.5356471,23.9660259 16.4501934,23.9054152 C16.2872352,23.7901555 16.2097307,23.5884511 16.2524575,23.3946956 L16.2524575,23.3946956 Z M32.9785301,10.0951198 L32.9755492,7.99361792 L6.99364775,7.99361792 L6.99364775,10.0951198 L32.9785301,10.0951198 Z M34,32.5021974 C34,32.6343486 33.9483303,32.7605381 33.8549274,32.8539382 C33.7615245,32.9473383 33.6353313,33 33.5031761,33 L29.9369743,33 L29.9369743,32.0063821 L33.0063522,32.0063821 L32.9795238,11.0887377 L6.99364775,11.0887377 L6.99364775,32.0063821 L25.9623833,32.0063821 L25.9623833,33 L6.49682388,33 C6.36466872,33 6.23847546,32.9473383 6.14507257,32.8549318 C6.05266333,32.7615317 6,32.6353422 6,32.503191 L6,7.49680896 C6,7.22257041 6.22158345,7 6.49682388,7 L33.4713794,7 C33.7466198,7 33.9682033,7.22257041 33.9682033,7.49680896 L34,32.5021974 Z M11.0576671,29.9754271 L15.0322581,29.9754271 L15.0322581,28.9818091 L11.0576671,28.9818091 L11.0576671,29.9754271 Z M17.0195536,29.9982803 L23.9750878,29.9982803 L23.9750878,29.0046624 L17.0195536,29.0046624 L17.0195536,29.9982803 Z M11.0576671,26.9985478 L15.0322581,26.9985478 L15.0322581,26.0049299 L11.0576671,26.0049299 L11.0576671,26.9985478 Z M17.0195536,26.9985478 L27.9496788,26.9985478 L27.9496788,26.0049299 L17.0195536,26.0049299 L17.0195536,26.9985478 Z" id="AWS-Certificate-Manager_Icon_32_Squid" fill="#DD344C"></path>
    </g>
</svg>

<svg width="40" height="40" xmlns="http://www.w3.org/2000/svg"><path d="M17.832 19.63c.133.12.19.3.152.476l-.513 2.362 2.27-1.391a.496.496 0 0 1 .52 0l2.252 1.388-.498-2.367a.5.5 0 0 1 .15-.47l2.014-1.84-2.665-.515a.496.496 0 0 1-.352-.27l-1.166-2.387-1.194 2.394a.497.497 0 0 1-.35.265l-2.657.518 2.037 1.838Zm-1.58 3.765.701-3.22-2.562-2.312a.498.498 0 0 1 .237-.856l3.393-.66 1.534-3.075c.085-.17.286-.306.447-.276.19.001.362.11.445.28l1.5 3.068 3.39.656a.498.498 0 0 1 .241.854l-2.533 2.316.68 3.223a.498.498 0 0 1-.748.525L20 22.083l-3.002 1.84a.492.492 0 0 1-.548-.018.495.495 0 0 1-.198-.51Zm16.727-13.3-.003-2.101H6.994v2.101h25.985ZM34 32.502a.496.496 0 0 1-.497.498h-3.566v-.994h3.07L32.98 11.09H6.994v20.917h18.968V33H6.497a.5.5 0 0 1-.352-.145.5.5 0 0 1-.145-.352V7.497C6 7.223 6.222 7 6.497 7H33.47c.276 0 .497.223.497.497L34 32.502Zm-22.942-2.527h3.974v-.993h-3.974v.993Zm5.962.023h6.955v-.993H17.02v.993Zm-5.962-3h3.974v-.993h-3.974v.994Zm5.962 0h10.93v-.993H17.02v.994Z" fill="#DD344C" fill-rule="evenodd"/></svg>
